admin/libraries/flag-icon/flags/1x1/lb.svg

<svg xmlns="http://www.w3.org/2000/svg" id="flag-icon-css-lb" width="512" height="512">
  <defs>
    <clipPath id="a">
      <path fill-opacity=".67" d="M124.02 0h496.06v496.06H124.02z"/>
    </clipPath>
  </defs>
  <g clip-path="url(#a)" transform="translate(-128) scale(1.0321)">
    <g fill-rule="evenodd" stroke-width="1pt">
      <path fill="red" d="M0 372.05h744.09v124.02H0zM0 0h744.09v124.02H0z"/>
      <path fill="#fff" d="M0 124.02h744.09v248.03H0z"/>
    </g>
    <path fill="#007900" d="M368.26 125.9c-7.567 15.108-12.613 15.108-25.224 25.181-5.044 5.036-12.611 7.554-2.522 12.591-10.089 5.035-15.134 7.554-20.179 17.626l2.522 2.518s9.587-4.699 10.09-2.518c1.677 2.013-12.619 9.738-14.464 10.912s-10.76 6.715-10.76 6.715c-12.611 10.072-20.179 7.553-27.746 22.662l25.224-2.517c5.045 17.626-12.612 20.144-25.224 27.698l-20.179 12.591c5.046 17.626 20.179 7.554 32.791 2.517l2.523 2.519v5.036l-25.224 12.591s-29.776 17.037-30.268 17.626c-.203.912 0 5.036 0 5.036 10.089 2.518 25.224 5.037 35.313 0 12.611-5.036 15.133-10.072 30.268-10.072-17.657 12.59-30.268 17.627-50.447 20.144v10.073c15.134 0 25.223 0 37.835-2.518l32.791-10.072c7.567 0 15.134 7.554 12.612 15.108-7.567 27.698-37.836 22.663-47.926 45.325l40.359-15.108c10.089-5.036 20.178-10.072 32.79-7.554 15.134 5.035 15.134 15.109 35.313 20.144l-5.044-12.59c5.044 2.518 10.089 2.518 15.133 5.036 12.613 5.037 15.135 10.072 30.268 7.554-12.611-15.109-15.133-12.59-25.223-22.662-10.089-15.109-15.134-37.771 0-40.29l17.657 5.037c17.656 2.517 17.656-2.518 42.879 7.554 15.135 5.036 20.18 12.59 37.836 7.554-7.567-17.626-35.313-30.217-52.969-35.253 20.178-12.591 15.133 5.036 42.879-2.519v-5.035c-20.178-15.109-27.746-27.699-55.492-27.699l42.881-5.037v-5.036s-42.29-11.095-43.274-11.489c.295-1.278 1.329-3.261 4.137-4.357 8.031 5.199 32.319 4.593 33.698 4.495-.71-6.196-12.218-11.312-22.307-16.347 0 0-43.201-26.628-43.416-28.985.857-6.749 17.744 1.072 35.849 6.321-5.045-10.072-15.135-15.108-25.224-17.626l15.134-2.518c-10.089-22.663-35.313-20.145-50.446-30.217-10.091-7.554-10.091-12.591-25.224-20.145z"/>
    <path fill="#fff" fill-rule="evenodd" stroke="#fff" stroke-linecap="round" stroke-linejoin="round" stroke-width="3.119" d="M341.01 293.63c1.872-6.001 4.337-11.311-6.895-16.426-11.233-5.114 5.614 20.457 6.895 16.426zm13.3-12c-2.264.295-3.45 8.56 1.082 10.821 5.027.785.889-10.722-1.082-10.821zm13.11-.88c-2.366.69-2.464 12.296 5.814 10.231 8.276-2.064-.101-11.213-5.814-10.231zm15.27-29.81c1.773-2.853-.098-14.557-7.194-9.64-7.093 4.919 4.927 10.427 7.194 9.64zm-15.47-9.73c2.169-.787 2.366-7.967-3.841-6.098-6.205 1.869 2.169 7.574 3.841 6.098zm-13.99 2.85s-4.336-6-7.686-4.722c-4.237 4.033 7.981 4.82 7.686 4.722zm-48.05 19.17c1.846.168 15.528-2.256 20.257-7.567 4.729-5.312-24.345 2.273-24.345 2.371s2.747 4.693 4.088 5.196zm136.73-33.87c.705-1.255-7.283-6.949-12.03-4.705-1.222 4.204 11.99 5.569 12.03 4.705zM415 215.83c1.479-2.164-3.447-11.016-13.3-6.098s10.344 9.541 13.3 6.098zm-31.13-5.21s2.462-7.967 8.375-6.394c6.701 5.116-8.08 6.69-8.375 6.394zm-5.81-6c-.888-2.262-7.095-.885-14.188 3.738-7.096 4.623 16.355 1.378 14.188-3.738zm18.13-21.45s6.32-2.829 8.178 0c2.661 4.23-8.276.099-8.178 0zm-5.31-2.76c-1.281-2.558-8.274-2.8-8.095.896-1.172 2.896 9.088 2.357 8.095-.896zm-16.67.01c-.689-1.476-10.638.028-13.595 6 4.746 2.308 15.765-2.262 13.595-6zm-21.28 6.1s-13.089 8.002-13.893 13.869c.397 5.066 16.256-9.148 16.256-9.148s1.38-5.607-2.363-4.721zm-14.48-7.28c.366-1.628 6.467-5.399 6.995-5.115.494 1.641-4.983 6.083-6.995 5.115zm4.14 30.59c.295-2.361-15.568-2.165-9.557 5.114 5.005 6.105 10.642-4.032 9.557-5.114zm-14.45 10.45c-.827-1.596-2.017-5.85-4.189-6.242-1.77-.099-11.309 1.868-12.038 3.483-.394 1.279 3.948 9.141 5.427 9.338 1.675.688 10.505-5.792 10.8-6.579zm85.58 53.38c.492-1.671 16.702-7.273 22.299-1.915 6.6 9.05-22.692 4.769-22.299 1.915zm44.56 10.6c3.552-6.011-10.907-13.137-17.044-6.269 2.098 8.252 14.173 11.239 17.044 6.269z"/>
  </g>
</svg>

﻿<svg xmlns="http://www.w3.org/2000/svg" height="512" width="512" viewBox="0 0 512 512" id="flag-icon-css-lb">
  <defs>
    <clipPath id="a">
      <path fill-opacity=".67" d="M124.02 0h496.06v496.06H124.02z"/>
    </clipPath>
  </defs>
  <g clip-path="url(#a)" transform="translate(-128) scale(1.0321)">
    <g fill-rule="evenodd" stroke-width="1pt">
      <path fill="red" d="M0 372.05h744.09v124.02H0zM0 0h744.09v124.02H0z"/>
      <path fill="#fff" d="M0 124.02h744.09v248.03H0z"/>
    </g>
    <path d="M368.26 125.9c-7.567 15.108-12.613 15.108-25.224 25.181-5.044 5.036-12.611 7.554-2.522 12.591-10.089 5.035-15.134 7.554-20.179 17.626l2.522 2.518s9.587-4.699 10.09-2.518c1.677 2.013-12.619 9.738-14.464 10.912s-10.76 6.715-10.76 6.715c-12.611 10.072-20.179 7.553-27.746 22.662l25.224-2.517c5.045 17.626-12.612 20.144-25.224 27.698l-20.179 12.591c5.046 17.626 20.179 7.554 32.791 2.517l2.523 2.519v5.036l-25.224 12.591s-29.776 17.037-30.268 17.626c-.203.912 0 5.036 0 5.036 10.089 2.518 25.224 5.037 35.313 0 12.611-5.036 15.133-10.072 30.268-10.072-17.657 12.59-30.268 17.627-50.447 20.144v10.073c15.134 0 25.223 0 37.835-2.518l32.791-10.072c7.567 0 15.134 7.554 12.612 15.108-7.567 27.698-37.836 22.663-47.926 45.325l40.359-15.108c10.089-5.036 20.178-10.072 32.79-7.554 15.134 5.035 15.134 15.109 35.313 20.144l-5.044-12.59c5.044 2.518 10.089 2.518 15.133 5.036 12.613 5.037 15.135 10.072 30.268 7.554-12.611-15.109-15.133-12.59-25.223-22.662-10.089-15.109-15.134-37.771 0-40.29l17.657 5.037c17.656 2.517 17.656-2.518 42.879 7.554 15.135 5.036 20.18 12.59 37.836 7.554-7.567-17.626-35.313-30.217-52.969-35.253 20.178-12.591 15.133 5.036 42.879-2.519v-5.035c-20.178-15.109-27.746-27.699-55.492-27.699l42.881-5.037v-5.036s-42.29-11.095-43.274-11.489c.295-1.278 1.329-3.261 4.137-4.357 8.031 5.199 32.319 4.593 33.698 4.495-.71-6.196-12.218-11.312-22.307-16.347 0 0-43.201-26.628-43.416-28.985.857-6.749 17.744 1.072 35.849 6.321-5.045-10.072-15.135-15.108-25.224-17.626l15.134-2.518c-10.089-22.663-35.313-20.145-50.446-30.217-10.091-7.554-10.091-12.591-25.224-20.145z" fill="#007900"/>
    <path stroke-linejoin="round" d="M341.01 293.63c1.872-6.001 4.337-11.311-6.895-16.426-11.233-5.114 5.614 20.457 6.895 16.426zM354.31 281.63c-2.264.295-3.45 8.56 1.082 10.821 5.027.785.889-10.722-1.082-10.821zM367.42 280.75c-2.366.69-2.464 12.296 5.814 10.231 8.276-2.064-.101-11.213-5.814-10.231zM382.69 250.94c1.773-2.853-.098-14.557-7.194-9.64-7.093 4.919 4.927 10.427 7.194 9.64zM367.22 241.21c2.169-.787 2.366-7.967-3.841-6.098-6.205 1.869 2.169 7.574 3.841 6.098zM353.23 244.06s-4.336-6-7.686-4.722c-4.237 4.033 7.981 4.82 7.686 4.722zM305.18 263.23c1.846.168 15.528-2.256 20.257-7.567 4.729-5.312-24.345 2.273-24.345 2.371s2.747 4.693 4.088 5.196zM441.91 229.36c.705-1.255-7.283-6.949-12.03-4.705-1.222 4.204 11.99 5.569 12.03 4.705zM415 215.83c1.479-2.164-3.447-11.016-13.3-6.098s10.344 9.541 13.3 6.098zM383.87 210.62s2.462-7.967 8.375-6.394c6.701 5.116-8.08 6.69-8.375 6.394zM378.06 204.62c-.888-2.262-7.095-.885-14.188 3.738-7.096 4.623 16.355 1.378 14.188-3.738zM396.19 183.17s6.32-2.829 8.178 0c2.661 4.23-8.276.099-8.178 0zM390.88 180.41c-1.281-2.558-8.274-2.8-8.095.896-1.172 2.896 9.088 2.357 8.095-.896zM374.21 180.42c-.689-1.476-10.638.028-13.595 6 4.746 2.308 15.765-2.262 13.595-6zM352.93 186.52s-13.089 8.002-13.893 13.869c.397 5.066 16.256-9.148 16.256-9.148s1.38-5.607-2.363-4.721zM338.45 179.24c.366-1.628 6.467-5.399 6.995-5.115.494 1.641-4.983 6.083-6.995 5.115zM342.59 209.83c.295-2.361-15.568-2.165-9.557 5.114 5.005 6.105 10.642-4.032 9.557-5.114zM328.14 220.28c-.827-1.596-2.017-5.85-4.189-6.242-1.77-.099-11.309 1.868-12.038 3.483-.394 1.279 3.948 9.141 5.427 9.338 1.675.688 10.505-5.792 10.8-6.579zM413.72 273.66c.492-1.671 16.702-7.273 22.299-1.915 6.6 9.05-22.692 4.769-22.299 1.915zM458.28 284.26c3.552-6.011-10.907-13.137-17.044-6.269 2.098 8.252 14.173 11.239 17.044 6.269z" fill-rule="evenodd" stroke="#fff" stroke-linecap="round" stroke-width="3.119" fill="#fff"/>
  </g>
</svg>
